suite-common/icons/assets/icons/coinControl.svg

<svg xmlns="http://www.w3.org/2000/svg" fill-rule="evenodd" viewBox="0 0 9.69 10">
  <path d="M4.414.018c-.366.032-.848.133-.979.204-.346.189-.33.701.028.877.133.065.239.067.478.009.262-.064.467-.091.777-.102.34-.011.605.011.926.079.345.073.366.076.448.061a.502.502 0 0 0 .295-.82C6.309.236 6.169.172 5.94.122A5.2 5.2 0 0 0 4.414.018m-2.917 1.33c-.094.033-.169.093-.303.239A5 5 0 0 0 .087 3.478c-.124.377-.104.548.086.721.218.2.571.163.737-.077.023-.033.081-.18.129-.327a4 4 0 0 1 .931-1.574.7.7 0 0 0 .161-.227.493.493 0 0 0-.244-.62.37.37 0 0 0-.214-.049.7.7 0 0 0-.176.023m6.364-.001a.5.5 0 0 0-.326.462c-.002.162.035.233.228.449.454.505.747 1.018.919 1.606.058.199.087.252.184.34a.492.492 0 0 0 .821-.337.65.65 0 0 0-.044-.283 5.1 5.1 0 0 0-1.167-2.025c-.176-.185-.249-.224-.425-.23a.6.6 0 0 0-.19.018M.334 5.694A.53.53 0 0 0 0 6.163c0 .153.218.754.409 1.129.272.532.823 1.238 1.053 1.349a.55.55 0 0 0 .411.003.48.48 0 0 0 .244-.239.4.4 0 0 0 .053-.213c.001-.152-.05-.257-.209-.426a4 4 0 0 1-.921-1.562 3 3 0 0 0-.12-.318.5.5 0 0 0-.217-.179.57.57 0 0 0-.369-.013m8.715-.003c-.199.065-.275.158-.369.457-.201.634-.456 1.078-.915 1.591-.185.207-.223.282-.223.442 0 .198.133.389.318.459a.52.52 0 0 0 .402-.02c.093-.048.299-.256.497-.505a5.3 5.3 0 0 0 .893-1.725c.089-.309.006-.551-.23-.666a.56.56 0 0 0-.373-.033M3.508 8.877a.6.6 0 0 0-.155.104.45.45 0 0 0-.161.362c0 .152.046.257.162.363.097.088.2.128.506.192.356.075.521.09.993.09s.637-.015.993-.09c.285-.06.408-.105.491-.177a.486.486 0 0 0 .001-.755c-.14-.123-.294-.144-.572-.076-.341.082-.483.097-.913.097s-.572-.015-.913-.097c-.183-.045-.33-.049-.432-.013"/>
</svg>

<svg xmlns="http://www.w3.org/2000/svg" fill-rule="evenodd" viewBox="0 0 9.69 10"><path d="M4.414 0.018 C 4.048 0.050,3.566 0.151,3.435 0.222 C 3.089 0.411,3.105 0.923,3.463 1.099 C 3.596 1.164,3.702 1.166,3.941 1.108 C 4.203 1.044,4.408 1.017,4.718 1.006 C 5.058 0.995,5.323 1.017,5.644 1.085 C 5.989 1.158,6.010 1.161,6.092 1.146 C 6.476 1.075,6.639 0.621,6.387 0.326 C 6.309 0.236,6.169 0.172,5.940 0.122 C 5.443 0.013,4.892 -0.025,4.414 0.018 M1.497 1.348 C 1.403 1.381,1.328 1.441,1.194 1.587 C 0.673 2.157,0.326 2.749,0.087 3.478 C -0.037 3.855,-0.017 4.026,0.173 4.199 C 0.391 4.399,0.744 4.362,0.910 4.122 C 0.933 4.089,0.991 3.942,1.039 3.795 C 1.243 3.172,1.516 2.711,1.970 2.221 C 2.061 2.122,2.106 2.059,2.131 1.994 C 2.221 1.751,2.118 1.490,1.887 1.374 C 1.803 1.332,1.769 1.324,1.673 1.325 C 1.610 1.325,1.531 1.336,1.497 1.348 M7.861 1.347 C 7.670 1.417,7.537 1.606,7.535 1.809 C 7.533 1.971,7.570 2.042,7.763 2.258 C 8.217 2.763,8.510 3.276,8.682 3.864 C 8.740 4.063,8.769 4.116,8.866 4.204 C 9.174 4.481,9.660 4.282,9.687 3.867 C 9.693 3.770,9.686 3.725,9.643 3.584 C 9.405 2.807,9.004 2.111,8.476 1.559 C 8.300 1.374,8.227 1.335,8.051 1.329 C 7.970 1.326,7.899 1.333,7.861 1.347 M0.334 5.694 C 0.147 5.762,-0.000 5.969,-0.000 6.163 C -0.000 6.316,0.218 6.917,0.409 7.292 C 0.681 7.824,1.232 8.530,1.462 8.641 C 1.573 8.695,1.767 8.696,1.873 8.644 C 1.991 8.587,2.062 8.517,2.117 8.405 C 2.159 8.320,2.169 8.280,2.170 8.192 C 2.171 8.040,2.120 7.935,1.961 7.766 C 1.524 7.299,1.240 6.817,1.040 6.204 C 0.993 6.059,0.939 5.916,0.920 5.886 C 0.876 5.814,0.801 5.753,0.703 5.707 C 0.608 5.663,0.435 5.656,0.334 5.694 M9.049 5.691 C 8.850 5.756,8.774 5.849,8.680 6.148 C 8.479 6.782,8.224 7.226,7.765 7.739 C 7.580 7.946,7.542 8.021,7.542 8.181 C 7.542 8.379,7.675 8.570,7.860 8.640 C 7.986 8.688,8.144 8.680,8.262 8.620 C 8.355 8.572,8.561 8.364,8.759 8.115 C 9.144 7.633,9.482 6.981,9.652 6.390 C 9.741 6.081,9.658 5.839,9.422 5.724 C 9.316 5.672,9.152 5.657,9.049 5.691 M3.508 8.877 C 3.470 8.891,3.401 8.937,3.353 8.981 C 3.240 9.084,3.193 9.189,3.192 9.343 C 3.192 9.495,3.238 9.600,3.354 9.706 C 3.451 9.794,3.554 9.834,3.860 9.898 C 4.216 9.973,4.381 9.988,4.853 9.988 C 5.325 9.988,5.490 9.973,5.846 9.898 C 6.131 9.838,6.254 9.793,6.337 9.721 C 6.577 9.509,6.578 9.177,6.338 8.966 C 6.198 8.843,6.044 8.822,5.766 8.890 C 5.425 8.972,5.283 8.987,4.853 8.987 C 4.423 8.987,4.281 8.972,3.940 8.890 C 3.757 8.845,3.610 8.841,3.508 8.877 " stroke="none" fill-rule="evenodd" fill="black"></path></svg>
